X:4446
T:Mrs.Parker's Waltz. HSJJ.098
O:england
M:3/8
L:1/16
Q:40
S:HSJ Jackson,Wyresdale,Lancs.1823
R:Waltz
A:Lancashire
H:1823
K:A
E2|A2ABcA|d2d2B2|c2c2A2|BGE2E2|A2ABcA|d2B2B2|F2FAGB|A4:|
|:E2|e2e2ce|d2dBd2|c2c2Ac|BGE2E2|e2cdef|d2Bcde|F2FAGB|A4:|]


